poi/svg/2003.svg

<?xml version="1.0" encoding="UTF-8" standalone="no"?>
<svg
   xmlns:dc="http://purl.org/dc/elements/1.1/"
   xmlns:cc="http://creativecommons.org/ns#"
   xmlns:rdf="http://www.w3.org/1999/02/22-rdf-syntax-ns#"
   xmlns:svg="http://www.w3.org/2000/svg"
   xmlns="http://www.w3.org/2000/svg"
   xmlns:sodipodi="http://sodipodi.sourceforge.net/DTD/sodipodi-0.dtd"
   xmlns:inkscape="http://www.inkscape.org/namespaces/inkscape"
   inkscape:version="1.0 (4035a4fb49, 2020-05-01)"
   sodipodi:docname="2003.svg"
   id="svg20"
   version="1.2"
   viewBox="0 0 42.519639 42.519639"
   height="14.999999mm"
   width="14.999999mm">
  <metadata
     id="metadata24">
    <rdf:RDF>
      <cc:Work
         rdf:about="">
        <dc:format>image/svg+xml</dc:format>
        <dc:type
           rdf:resource="http://purl.org/dc/dcmitype/StillImage" />
        <dc:title>Qt SVG Document</dc:title>
      </cc:Work>
    </rdf:RDF>
  </metadata>
  <sodipodi:namedview
     inkscape:current-layer="svg20"
     inkscape:window-maximized="0"
     inkscape:window-y="0"
     inkscape:window-x="0"
     inkscape:cy="28.346482"
     inkscape:cx="28.346482"
     inkscape:zoom="5.8410537"
     showgrid="false"
     id="namedview22"
     inkscape:window-height="480"
     inkscape:window-width="1034"
     inkscape:pageshadow="2"
     inkscape:pageopacity="0"
     guidetolerance="10"
     gridtolerance="10"
     objecttolerance="10"
     borderopacity="1"
     bordercolor="#666666"
     pagecolor="#ffffff" />
  <title
     id="title2">Qt SVG Document</title>
  <desc
     id="desc4">Generated with Qt</desc>
  <defs
     id="defs6" />
  <g
     transform="translate(5.25984,5.25984)"
     id="g18"
     stroke-linejoin="bevel"
     stroke-linecap="square"
     fill-rule="evenodd"
     stroke-width="1"
     stroke="#000000"
     fill="none">
    <g
       id="g10"
       font-style="normal"
       font-weight="400"
       font-size="7.8px"
       font-family="'MS Shell Dlg 2'"
       stroke="none"
       fill-opacity="1"
       fill="#a61215">
      <path
         id="path8"
         d="M 37.2598,16 C 37.2598,27.7415 27.7415,37.2598 16,37.2598 4.25851,37.2598 -5.25984,27.7415 -5.25984,16 -5.25984,4.25851 4.25851,-5.25984 16,-5.25984 27.7415,-5.25984 37.2598,4.25851 37.2598,16"
         fill-rule="evenodd"
         vector-effect="non-scaling-stroke" />
    </g>
    <g
       id="g14"
       font-style="normal"
       font-weight="400"
       font-size="7.8px"
       font-family="'MS Shell Dlg 2'"
       transform="translate(15.4331,12.5984)"
       stroke="none"
       fill-opacity="0.94902"
       fill="#ffffff">
      <path
         id="path12"
         d="m 8.78857,-1.83203 c 0.33594,0.05599 0.61939,0.10498 0.85035,0.14697 0.23095,0.04199 0.41638,0.09798 0.55638,0.16797 0.14,0.05599 0.259,0.11198 0.3569,0.16797 L 8.17969,15.8047 h -4.8711 c 0.34994,-0.4899 0.5389,-0.9483 0.5669,-1.3753 0.02799,-0.4269 0.04199,-0.6683 0.04199,-0.7243 0,-0.21 -0.08398,-0.3989 -0.25195,-0.5669 0.22396,-0.168 0.40942,-0.3814 0.55639,-0.6404 0.14698,-0.2589 0.22046,-0.5774 0.22046,-0.9553 0,-0.336 -0.07348,-0.6404 -0.22046,-0.9133 C 4.07495,10.3562 3.88949,10.1287 3.66553,9.94678 3.8335,9.77881 3.91748,9.61084 3.91748,9.44287 3.91748,9.38688 3.90348,9.12093 3.87549,8.64502 3.84749,8.16911 3.63053,7.6582 3.22461,7.1123 2.39876,6.23047 1.20898,5.78955 -0.344727,5.78955 H -1.20557 l -0.98681,-7.13867 c 0.37793,-0.08399 0.86784,-0.18897 1.469724,-0.31494 C -0.204753,-1.74805 0.484619,-1.82503 1.34546,-1.89502 2.2063,-1.96501 3.2946,-2 4.61035,-2 c 0.62988,0 1.18978,0 1.67969,0 0.48991,0 0.93083,0.02799 1.32275,0.08398 l 1.80567,-5.62695 1.13374,0.25195 -1.76363,5.45899 M -9.96094,9.52686 C -9.98893,9.00895 -9.87695,8.54704 -9.625,8.14111 -9.42904,7.80518 -9.0861,7.49373 -8.59619,7.20679 -8.10628,6.91984 -7.38542,6.77637 -6.43359,6.77637 h 5.920895 c 0.923828,0 1.627195,0.14347 2.110105,0.43042 0.48291,0.28694 0.82935,0.59839 1.03931,0.93432 0.22396,0.40593 0.32194,0.86784 0.29394,1.38575 h -12.8916 m 12.8916,4.26224 c 0.028,0.5039 -0.06998,0.9588 -0.29394,1.3647 -0.20996,0.3499 -0.5564,0.6684 -1.03931,0.9553 -0.48291,0.287 -1.186277,0.4305 -2.110105,0.4305 H -6.43359 c -0.95183,0 -1.67269,-0.1435 -2.1626,-0.4305 C -9.0861,15.8222 -9.42904,15.5037 -9.625,15.1538 -9.87695,14.7479 -9.98893,14.293 -9.96094,13.7891 h 12.8916 m -0.5249,-3.4014 c 0.32194,0 0.58439,0.1225 0.78736,0.3674 0.20296,0.245 0.30444,0.5354 0.30444,0.8714 0,0.3779 -0.10148,0.6823 -0.30444,0.9133 -0.20297,0.231 -0.46542,0.3464 -0.78736,0.3464 H -9.45703 c -0.30794,0 -0.56337,-0.1154 -0.76637,-0.3464 -0.203,-0.231 -0.3044,-0.5354 -0.3044,-0.9133 0,-0.336 0.1014,-0.6264 0.3044,-0.8714 0.203,-0.2449 0.45843,-0.3674 0.76637,-0.3674 H 2.40576"
         fill-rule="evenodd"
         vector-effect="none" />
    </g>
    <g
       id="g16"
       font-style="normal"
       font-weight="400"
       font-size="7.8px"
       font-family="'MS Shell Dlg 2'"
       stroke="none"
       fill-opacity="1"
       fill="#a61215" />
  </g>
</svg>

<?xml version="1.0" encoding="UTF-8" standalone="no"?>
<svg width="11.2889mm" height="11.2889mm"
 viewBox="0 0 32 32"
 xmlns="http://www.w3.org/2000/svg" xmlns:xlink="http://www.w3.org/1999/xlink"  version="1.2" baseProfile="tiny">
<title>Qt SVG Document</title>
<desc>Generated with Qt</desc>
<defs>
</defs>
<g fill="none" stroke="black" stroke-width="1" fill-rule="evenodd" stroke-linecap="square" stroke-linejoin="bevel" >

<g fill="#a61215" fill-opacity="1" stroke="none" transform="matrix(1,0,0,1,0,0)"
font-family="MS Shell Dlg 2" font-size="7.8" font-weight="400" font-style="normal" 
>
<path vector-effect="non-scaling-stroke" fill-rule="evenodd" d="M37.2598,16 C37.2598,27.7415 27.7415,37.2598 16,37.2598 C4.25851,37.2598 -5.25984,27.7415 -5.25984,16 C-5.25984,4.25851 4.25851,-5.25984 16,-5.25984 C27.7415,-5.25984 37.2598,4.25851 37.2598,16 "/>
</g>

<g fill="#ffffff" fill-opacity="0.94902" stroke="none" transform="matrix(1,0,0,1,15.4331,12.5984)"
font-family="MS Shell Dlg 2" font-size="7.8" font-weight="400" font-style="normal" 
>
<path vector-effect="none" fill-rule="evenodd" d="M8.78857,-1.83203 C9.12451,-1.77604 9.40796,-1.72705 9.63892,-1.68506 C9.86987,-1.64307 10.0553,-1.58708 10.1953,-1.51709 C10.3353,-1.4611 10.4543,-1.40511 10.5522,-1.34912 L8.17969,15.8047 L3.30859,15.8047 C3.65853,15.3148 3.84749,14.8564 3.87549,14.4294 C3.90348,14.0025 3.91748,13.7611 3.91748,13.7051 C3.91748,13.4951 3.8335,13.3062 3.66553,13.1382 C3.88949,12.9702 4.07495,12.7568 4.22192,12.4978 C4.3689,12.2389 4.44238,11.9204 4.44238,11.5425 C4.44238,11.2065 4.3689,10.9021 4.22192,10.6292 C4.07495,10.3562 3.88949,10.1287 3.66553,9.94678 C3.8335,9.77881 3.91748,9.61084 3.91748,9.44287 C3.91748,9.38688 3.90348,9.12093 3.87549,8.64502 C3.84749,8.16911 3.63053,7.6582 3.22461,7.1123 C2.39876,6.23047 1.20898,5.78955 -0.344727,5.78955 L-1.20557,5.78955 L-2.19238,-1.34912 C-1.81445,-1.43311 -1.32454,-1.53809 -0.722656,-1.66406 C-0.204753,-1.74805 0.484619,-1.82503 1.34546,-1.89502 C2.2063,-1.96501 3.2946,-2 4.61035,-2 C5.24023,-2 5.80013,-2 6.29004,-2 C6.77995,-2 7.22087,-1.97201 7.61279,-1.91602 L9.41846,-7.54297 L10.5522,-7.29102 L8.78857,-1.83203 M-9.96094,9.52686 C-9.98893,9.00895 -9.87695,8.54704 -9.625,8.14111 C-9.42904,7.80518 -9.0861,7.49373 -8.59619,7.20679 C-8.10628,6.91984 -7.38542,6.77637 -6.43359,6.77637 L-0.512695,6.77637 C0.411133,6.77637 1.1145,6.91984 1.59741,7.20679 C2.08032,7.49373 2.42676,7.80518 2.63672,8.14111 C2.86068,8.54704 2.95866,9.00895 2.93066,9.52686 L-9.96094,9.52686 M2.93066,13.7891 C2.95866,14.293 2.86068,14.7479 2.63672,15.1538 C2.42676,15.5037 2.08032,15.8222 1.59741,16.1091 C1.1145,16.3961 0.411133,16.5396 -0.512695,16.5396 L-6.43359,16.5396 C-7.38542,16.5396 -8.10628,16.3961 -8.59619,16.1091 C-9.0861,15.8222 -9.42904,15.5037 -9.625,15.1538 C-9.87695,14.7479 -9.98893,14.293 -9.96094,13.7891 L2.93066,13.7891 M2.40576,10.3877 C2.7277,10.3877 2.99015,10.5102 3.19312,10.7551 C3.39608,11.0001 3.49756,11.2905 3.49756,11.6265 C3.49756,12.0044 3.39608,12.3088 3.19312,12.5398 C2.99015,12.7708 2.7277,12.8862 2.40576,12.8862 L-9.45703,12.8862 C-9.76497,12.8862 -10.0204,12.7708 -10.2234,12.5398 C-10.4264,12.3088 -10.5278,12.0044 -10.5278,11.6265 C-10.5278,11.2905 -10.4264,11.0001 -10.2234,10.7551 C-10.0204,10.5102 -9.76497,10.3877 -9.45703,10.3877 L2.40576,10.3877"/>
</g>

<g fill="#a61215" fill-opacity="1" stroke="none" transform="matrix(1,0,0,1,0,0)"
font-family="MS Shell Dlg 2" font-size="7.8" font-weight="400" font-style="normal" 
>
</g>
</g>
</svg>
